app/assets/images/badges/profil-2-blanc.svg

<svg width="20" height="20" viewBox="0 0 20 20" fill="none" xmlns="http://www.w3.org/2000/svg">
<path d="M7.17036 4.33353C7.2837 4.33353 7.39148 4.36797 7.4937 4.43686C7.59592 4.50353 7.67814 4.59464 7.74036 4.7102C7.80259 4.82353 7.8337 4.94797 7.8337 5.08353C7.8337 5.21686 7.80259 5.34131 7.74036 5.45686C7.67814 5.57242 7.59592 5.66464 7.4937 5.73353C7.39148 5.8002 7.2837 5.83353 7.17036 5.83353H6.59036V6.46353C6.59036 6.52353 6.57259 6.57242 6.53703 6.61019C6.50148 6.64797 6.45481 6.66686 6.39703 6.66686C6.34148 6.66686 6.29592 6.64797 6.26036 6.61019C6.22481 6.57019 6.20703 6.52131 6.20703 6.46353V4.53686C6.20703 4.47908 6.22592 4.43131 6.2637 4.39353C6.3037 4.35353 6.35259 4.33353 6.41036 4.33353H7.17036ZM7.17036 5.45353C7.21259 5.45353 7.2537 5.43575 7.2937 5.4002C7.33592 5.36464 7.36925 5.31908 7.3937 5.26353C7.42036 5.20575 7.4337 5.14575 7.4337 5.08353C7.4337 5.02131 7.42036 4.96242 7.3937 4.90686C7.36925 4.84908 7.33592 4.80353 7.2937 4.7702C7.2537 4.73464 7.21259 4.71686 7.17036 4.71686H6.59036V5.45353H7.17036Z" fill="#FBF9FA"/>
<path d="M9.10883 4.8502C9.1755 4.8502 9.23105 4.86908 9.2755 4.90686C9.32216 4.94464 9.34549 4.98908 9.34549 5.0402C9.34549 5.10908 9.32772 5.16131 9.29216 5.19686C9.25661 5.2302 9.21438 5.24686 9.16549 5.24686C9.13216 5.24686 9.09438 5.23908 9.05216 5.22353C9.04549 5.22131 9.02994 5.21686 9.0055 5.2102C8.98327 5.20353 8.95883 5.2002 8.93216 5.2002C8.87438 5.2002 8.81883 5.21797 8.7655 5.25353C8.71216 5.28908 8.66772 5.34353 8.63216 5.41686C8.59883 5.48797 8.58216 5.57353 8.58216 5.67353V6.46353C8.58216 6.52131 8.56327 6.57019 8.52549 6.61019C8.48772 6.64797 8.43994 6.66686 8.38216 6.66686C8.32438 6.66686 8.27661 6.64797 8.23883 6.61019C8.20105 6.57019 8.18216 6.52131 8.18216 6.46353V5.08686C8.18216 5.02908 8.20105 4.98131 8.23883 4.94353C8.27661 4.90353 8.32438 4.88353 8.38216 4.88353C8.43994 4.88353 8.48772 4.90353 8.52549 4.94353C8.56327 4.98131 8.58216 5.02908 8.58216 5.08686V5.1302C8.63327 5.03908 8.70661 4.9702 8.80216 4.92353C8.89772 4.87464 8.99994 4.8502 9.10883 4.8502Z" fill="#FBF9FA"/>
<path d="M11.2659 5.77686C11.2659 5.95464 11.2259 6.11464 11.1459 6.25686C11.0659 6.39686 10.9559 6.50575 10.8159 6.58353C10.6782 6.66131 10.5259 6.70019 10.3593 6.70019C10.1904 6.70019 10.037 6.66131 9.89927 6.58353C9.76149 6.50575 9.6526 6.39686 9.5726 6.25686C9.4926 6.11464 9.4526 5.95464 9.4526 5.77686C9.4526 5.59908 9.4926 5.4402 9.5726 5.3002C9.6526 5.15797 9.76149 5.04797 9.89927 4.9702C10.037 4.8902 10.1904 4.8502 10.3593 4.8502C10.5259 4.8502 10.6782 4.8902 10.8159 4.9702C10.9559 5.04797 11.0659 5.15797 11.1459 5.3002C11.2259 5.4402 11.2659 5.59908 11.2659 5.77686ZM10.8659 5.77686C10.8659 5.66797 10.8426 5.57131 10.7959 5.48686C10.7515 5.4002 10.6904 5.33353 10.6126 5.28686C10.537 5.2402 10.4526 5.21686 10.3593 5.21686C10.2659 5.21686 10.1804 5.2402 10.1026 5.28686C10.027 5.33353 9.96594 5.4002 9.91927 5.48686C9.87483 5.57131 9.8526 5.66797 9.8526 5.77686C9.8526 5.88575 9.87483 5.98242 9.91927 6.06686C9.96594 6.15131 10.027 6.21686 10.1026 6.26353C10.1804 6.31019 10.2659 6.33353 10.3593 6.33353C10.4526 6.33353 10.537 6.31019 10.6126 6.26353C10.6904 6.21686 10.7515 6.15131 10.7959 6.06686C10.8426 5.98242 10.8659 5.88575 10.8659 5.77686Z" fill="#FBF9FA"/>
<path d="M12.4568 4.55353C12.3812 4.55353 12.3279 4.57575 12.2968 4.6202C12.2657 4.66242 12.2501 4.70908 12.2501 4.7602V4.91686H12.5535C12.6068 4.91686 12.6512 4.93464 12.6868 4.9702C12.7224 5.00353 12.7401 5.04686 12.7401 5.1002C12.7401 5.15353 12.7224 5.19797 12.6868 5.23353C12.6512 5.26686 12.6068 5.28353 12.5535 5.28353H12.2501V6.46353C12.2501 6.52131 12.2312 6.57019 12.1935 6.61019C12.1557 6.64797 12.1079 6.66686 12.0501 6.66686C11.9924 6.66686 11.9446 6.64797 11.9068 6.61019C11.869 6.57019 11.8501 6.52131 11.8501 6.46353V5.28353H11.6701C11.6168 5.28353 11.5724 5.26686 11.5368 5.23353C11.5012 5.19797 11.4835 5.15353 11.4835 5.1002C11.4835 5.04686 11.5012 5.00353 11.5368 4.9702C11.5724 4.93464 11.6168 4.91686 11.6701 4.91686H11.8501V4.76353C11.8501 4.59686 11.9068 4.46131 12.0201 4.35686C12.1357 4.25242 12.3012 4.2002 12.5168 4.2002C12.599 4.2002 12.6701 4.21686 12.7301 4.2502C12.7924 4.28353 12.8235 4.33464 12.8235 4.40353C12.8235 4.45686 12.8079 4.5002 12.7768 4.53353C12.7457 4.56686 12.7079 4.58353 12.6635 4.58353C12.6524 4.58353 12.6401 4.58242 12.6268 4.5802C12.6157 4.57797 12.6035 4.57575 12.5901 4.57353C12.5368 4.5602 12.4924 4.55353 12.4568 4.55353ZM13.3668 6.46353C13.3668 6.52131 13.3479 6.57019 13.3101 6.61019C13.2724 6.64797 13.2246 6.66686 13.1668 6.66686C13.109 6.66686 13.0612 6.64797 13.0235 6.61019C12.9857 6.57019 12.9668 6.52131 12.9668 6.46353V5.08686C12.9668 5.02908 12.9857 4.98131 13.0235 4.94353C13.0612 4.90353 13.109 4.88353 13.1668 4.88353C13.2246 4.88353 13.2724 4.90353 13.3101 4.94353C13.3479 4.98131 13.3668 5.02908 13.3668 5.08686V6.46353ZM13.1635 4.66686C13.0879 4.66686 13.0346 4.65464 13.0035 4.6302C12.9724 4.60575 12.9568 4.56242 12.9568 4.5002V4.43686C12.9568 4.37464 12.9735 4.33131 13.0068 4.30686C13.0401 4.28242 13.0935 4.2702 13.1668 4.2702C13.2446 4.2702 13.299 4.28242 13.3301 4.30686C13.3612 4.33131 13.3768 4.37464 13.3768 4.43686V4.5002C13.3768 4.56464 13.3601 4.60908 13.3268 4.63353C13.2957 4.65575 13.2412 4.66686 13.1635 4.66686Z" fill="#FBF9FA"/>
<path d="M14.2112 6.46353C14.2112 6.52131 14.1912 6.57019 14.1512 6.61019C14.1134 6.64797 14.0656 6.66686 14.0079 6.66686C13.9523 6.66686 13.9056 6.64797 13.8679 6.61019C13.8301 6.57019 13.8112 6.52131 13.8112 6.46353V4.40353C13.8112 4.34575 13.8301 4.29797 13.8679 4.2602C13.9079 4.2202 13.9568 4.2002 14.0145 4.2002C14.0701 4.2002 14.1168 4.2202 14.1545 4.2602C14.1923 4.29797 14.2112 4.34575 14.2112 4.40353V6.46353Z" fill="#FBF9FA"/>
<path fill-rule="evenodd" clip-rule="evenodd" d="M10 18.75C14.8325 18.75 18.75 14.8325 18.75 10C18.75 5.16751 14.8325 1.25 10 1.25C5.16751 1.25 1.25 5.16751 1.25 10C1.25 14.8325 5.16751 18.75 10 18.75ZM10 20C15.5228 20 20 15.5228 20 10C20 4.47715 15.5228 0 10 0C4.47715 0 0 4.47715 0 10C0 15.5228 4.47715 20 10 20Z" fill="#FBF9FA"/>
<path d="M11.5919 14.4541C11.7319 14.4541 11.8486 14.5008 11.9419 14.5941C12.0353 14.6874 12.0819 14.8041 12.0819 14.9441C12.0819 15.0783 12.0353 15.192 11.9419 15.2854C11.8486 15.3729 11.7319 15.4166 11.5919 15.4166H8.61692C8.46526 15.4166 8.34567 15.3699 8.25817 15.2766C8.17067 15.1833 8.12692 15.0637 8.12692 14.9179C8.12692 14.772 8.17942 14.6437 8.28442 14.5329L10.1919 12.4941C10.4078 12.2608 10.5769 12.0274 10.6994 11.7941C10.8278 11.5549 10.8919 11.3362 10.8919 11.1379C10.8919 10.8754 10.7986 10.6479 10.6119 10.4554C10.4253 10.2629 10.2094 10.1666 9.96442 10.1666C9.79526 10.1666 9.62317 10.2249 9.44817 10.3416C9.27901 10.4524 9.12442 10.6012 8.98442 10.7879C8.87942 10.9279 8.74526 10.9979 8.58192 10.9979C8.45359 10.9979 8.33401 10.9483 8.22317 10.8491C8.11817 10.7499 8.06567 10.6391 8.06567 10.5166C8.06567 10.4291 8.09484 10.3416 8.15317 10.2541C8.21151 10.1608 8.29901 10.0558 8.41567 9.9391C8.63734 9.71744 8.89401 9.53952 9.18567 9.40535C9.47734 9.27118 9.75734 9.2041 10.0257 9.2041C10.4107 9.2041 10.749 9.28577 11.0407 9.4491C11.3323 9.61243 11.5569 9.83702 11.7144 10.1229C11.8719 10.4087 11.9507 10.7324 11.9507 11.0941C11.9507 11.4499 11.8544 11.8174 11.6619 12.1966C11.4753 12.5699 11.2215 12.9287 10.9007 13.2729L9.78942 14.4541H11.5919Z" fill="#FBF9FA"/>
</svg>

<svg width="20" height="20" fill="none" xmlns="http://www.w3.org/2000/svg"><path d="M7.17 4.334a.57.57 0 01.324.103.735.735 0 01.246.273.763.763 0 01.094.374.775.775 0 01-.094.373.763.763 0 01-.246.277.582.582 0 01-.324.1h-.58v.63c0 .06-.017.108-.053.146a.183.183 0 01-.14.057.18.18 0 01-.137-.057.213.213 0 01-.053-.146V4.537a.2.2 0 01.203-.203h.76zm0 1.12a.185.185 0 00.124-.054.425.425 0 000-.63.185.185 0 00-.124-.053h-.58v.737h.58zM9.109 4.85c.066 0 .122.02.166.057.047.038.07.082.07.133 0 .07-.017.121-.053.157a.179.179 0 01-.127.05.333.333 0 01-.113-.023 1.18 1.18 0 00-.046-.014.296.296 0 00-.24.043.399.399 0 00-.134.164.6.6 0 00-.05.257v.79a.206.206 0 01-.057.146.194.194 0 01-.143.057.194.194 0 01-.143-.057.206.206 0 01-.057-.146V5.087c0-.058.02-.106.057-.143a.189.189 0 01.143-.06c.058 0 .106.02.143.06a.194.194 0 01.057.143v.043a.495.495 0 01.22-.206.664.664 0 01.307-.074zM11.266 5.777c0 .178-.04.338-.12.48a.848.848 0 01-.33.327.913.913 0 01-.457.116.92.92 0 01-.46-.116.854.854 0 01-.326-.327.962.962 0 01-.12-.48c0-.178.04-.337.12-.477a.848.848 0 01.326-.33.9.9 0 01.46-.12c.167 0 .32.04.457.12.14.078.25.188.33.33.08.14.12.3.12.477zm-.4 0a.59.59 0 00-.07-.29.485.485 0 00-.437-.27.49.49 0 00-.256.07.516.516 0 00-.184.2.613.613 0 00-.066.29c0 .109.022.205.066.29a.49.49 0 00.44.267.49.49 0 00.437-.267.59.59 0 00.07-.29zM12.457 4.554c-.076 0-.13.022-.16.066a.23.23 0 00-.047.14v.157h.303a.18.18 0 01.134.053.17.17 0 01.053.13.18.18 0 01-.053.134.187.187 0 01-.133.05h-.304v1.18a.206.206 0 01-.056.146.194.194 0 01-.144.057.194.194 0 01-.143-.057.206.206 0 01-.057-.146v-1.18h-.18a.187.187 0 01-.133-.05.18.18 0 01-.054-.134.17.17 0 01.054-.13.18.18 0 01.133-.053h.18v-.153c0-.167.057-.303.17-.407.116-.105.281-.157.497-.157.082 0 .153.017.213.05a.163.163 0 01.093.154.183.183 0 01-.046.13.15.15 0 01-.113.05.225.225 0 01-.037-.004 1.1 1.1 0 00-.037-.006.569.569 0 00-.133-.02zm.91 1.91a.206.206 0 01-.057.146.194.194 0 01-.143.057.194.194 0 01-.143-.057.206.206 0 01-.057-.146V5.087c0-.058.019-.106.056-.143a.188.188 0 01.144-.06c.058 0 .105.02.143.06a.194.194 0 01.057.143v1.377zm-.204-1.797c-.075 0-.128-.012-.16-.037-.03-.024-.046-.068-.046-.13v-.063c0-.062.016-.106.05-.13.033-.025.087-.037.16-.037.078 0 .132.012.163.037.031.024.047.068.047.13V4.5c0 .065-.017.11-.05.134-.031.022-.086.033-.163.033zM14.211 6.464a.2.2 0 01-.203.203.19.19 0 01-.14-.057.206.206 0 01-.057-.146v-2.06a.2.2 0 01.203-.203c.056 0 .103.02.14.06a.194.194 0 01.057.143v2.06z" fill="#FBF9FA"/><path fill-rule="evenodd" clip-rule="evenodd" d="M10 18.75a8.75 8.75 0 100-17.5 8.75 8.75 0 000 17.5zM10 20c5.523 0 10-4.477 10-10S15.523 0 10 0 0 4.477 0 10s4.477 10 10 10z" fill="#FBF9FA"/><path d="M11.592 14.454a.475.475 0 01.49.49.464.464 0 01-.14.341.492.492 0 01-.35.132H8.617a.468.468 0 01-.359-.14.503.503 0 01-.131-.36c0-.145.052-.273.157-.384l1.908-2.039c.216-.233.385-.467.507-.7.129-.24.193-.458.193-.656a.948.948 0 00-.28-.683.876.876 0 00-.648-.288.929.929 0 00-.516.175c-.169.11-.324.26-.464.446a.483.483 0 01-.402.21.529.529 0 01-.359-.149.449.449 0 01-.157-.332.47.47 0 01.087-.263c.059-.093.146-.198.263-.315.221-.222.478-.4.77-.534a2.043 2.043 0 011.855.044c.291.163.516.388.673.674.158.286.237.61.237.971 0 .356-.097.723-.29 1.103-.186.373-.44.732-.76 1.076l-1.112 1.181h1.803z" fill="#FBF9FA"/></svg>
